X:1
T:Anima Christi
T:Oliver Hayes
T:Anima Christi
C:Oliver Hayes
%%score [ 1 2 3 4 ]
L:1/8
Q:1/4=160
M:4/2
K:C
V:1 treble nm="Soprano"
V:2 treble nm="Alto"
V:3 treble-8 nm="Tenor"
V:4 bass nm="Bass"
V:1
"^Reflective" z16 | z16 | z16 | z8 A8- | A4 G4 A4 d2 c2 | B2 A2 G4 A8- | A4 G4 A8 | B6 c2 d8 | %8
w: |||Cor-|* pus Chri- sti _|_ _ sti sal-|* va me,|sal- va me,|
 z16 | z16 | z16 | G4 A4 B4 c4- | c8 A8 | G8 B4 c4 | d8 d8- | d4 e4 f8- | f4 f4 g6 fe | %17
w: |||sal- * * va|_ me,|sal- * va|me. San-|* guis Chri-|* sti in- e- *|
 d4 c2 B2 A4 G4- | G8 F8 | z8 B8 | d6 c2 B4 G4 | c8 G8 | A2 G2 A2 B2 c8 | A6 A2 G4 A4 | %24
w: * * * bri- a|_ me.|A-|qua la- te- ris|Chri- sti,|la- * va _ me.|Pas- si- o Chri-|
 c6 A2 G4 F4 | E4 E4 D6 E2 | F2 G2 A2 B2 c4 B2 c2 | d4 c4 A8 | d8 c2 B2 A4 | d8 c2 B2 A4 | %30
w: sti con- for- ta|me. O bo- ne|Je- * * * su, ex- *|au- di me.|In- * * tra|tu- a _ vul-|
 d8 c2 B2 A4 | c4 B4 A8 | c8 B2 A2 G4 | c8 B2 A2 G4 | c4 c4 B2 A2 G4 | B4 A4 G8 | c8 c4 A4 | %37
w: ne- ra _ ab-|scon- de me.|Ne per- * *|mit- tas _ _|se- pa- ra- * *|ri ad te.|Ab ho- ste|
 G8 c8 | d8 e8 | f4 f4 e8 | d8 d4 f4 | g4 G4 A6 B2 | c4 c2 d2 e4 e4 | d6 c2 B4 A4 | G8 F8 | %45
w: ma- li-|gno de-|fen- de me.|In ho- ra|mor- tis me- ae|vo- ca _ me. Et|iu- be me ve-|ni- re|
 A6 B2 c4 c4- | c4 B4 A8- | A4 G4 F8 | G8 G4 F4 | G4 z2 G2 A4 A2 B2 | c4 c2 d2 e8 | f4 f4 e8 | %52
w: ad _ te. Ut|_ cum san-|* ctis tu-|is lau- dem|te. In sae- cu- la|sae- cu- * lo-|rum. A- men,|
 d8 c6 B2 | c8 c8- | c8 c8 | d16 | d16- | d16 |] %58
w: a- * *|men, a-|* men,|a-|men.|_|
V:2
 D8 D4 D4 | F6 ED E4 C4 | D2 E2 F2 G2 F2 E2 D4 | F8 F8 | E8 D8- | D4 D4 F8 | E8 D8 | G4 G4 A8 | %8
w: A- ni- ma|Chri- * * sti san-|cti- * * * fi- * ca|me. Cor-|pus Chri-|* sti sal-|va me,|sal- va me,|
 D12 C4 | D4 G2 F2 E2 D2 C4 | D12 C4 | D8 G8- | G8 F4 E4 | D8 G6 G2 | A8 z8 | A8 A8 | A8 B4 B4 | %17
w: cor- pus|Chri- * * * * sti|sal- va|me, sal-|* va _|me, sal- va|me.|San- guis|Chri- sti in-|
 A8 A4 D4 | E8 z8 | G8 G4 G4 | G12 G4 | G4 F2 E2 D4 E4 | F2 G2 A4 G8 | E6 E2 E4 C4 | E6 E2 E4 A,4 | %25
w: e- bri- a|me.|A- qua la-|te- ris|Chri- * * * sti,|la- * va me.|Pas- si- o Chri-|sti con- for- ta|
 B,8 A,8 | A,4 A,4 E8 | A4 G4 F4 G4 | A8 G4 A4 | B4 A4 G4 F4 | A8 G4 A4 | A8 E8 | E8 D4 B,4 | %33
w: me. O|bo- ne Je-|su, ex- au- di|me. In- tra|tu- * a vul-|ne- ra ab-|scon- de|me. Ne per-|
 C8 D8 | E4 E4 D8 | E4 F4 E8 | E8 G4 F4 | D4 E4 F4 G4 | F8 G6 G2 | A4 A4 G8 | G8 G4 A4 | %41
w: mit- tas|se- pa- ra-|ri ad te.|Ab ho- ste|ma- * * *|li- gno de-|fen- de me.|In ho- ra|
 G4 E4 F4 F4 | G4 G4 C8 | A,8 B,4 C4 | D4 E4 C8 | D4 F4 G8 | A4 G4 E4 D4 | C8 C8 | D8 C4 D4 | %49
w: mor- tis me- ae|vo- ca me.|Et iu- be|me ve- ni-|re ad te.|Ut cum san- ctis|tu- is|lau- dem _|
 E8 z4 z2 D2 | E4 E2 F2 G4 A4 | c8 c4 c4 | B8 F6 G2 | G12 A4- | A8 G8 | G16- | G16 | F16 |] %58
w: te. In|sae- cu- la sae- cu-|lo- rum. A-|men, a- *|men, a-|* men,|a-||men.|
V:3
 A8 A4 B4 | A8 A4 G4 | B6 c2 A4 B4 | A8 d8 | c8 d8 | G4 B4 d8 | c8 f8 | d6 e2 d8 | B8 A8 | G8 G8 | %10
w: A- ni- ma|Chri- sti san-|cti- * fi- ca|me. Cor-|pus Chri-|sti _ sal-|va me,|sal- va me,|cor- pus|Chri- sti|
 B8 A8 | B8 d8 | e8 c8 | B4 c4 d4 e4 | f8 z8 | f8 f8- | f4 c4 d4 e4 | f12 d4 | B8 d8 | z8 d8 | %20
w: sal- va|me, sal-|va me,|sal- * * va|me.|San- guis|_ Chri- sti in-|e- bri-|a me.|A-|
 B6 c2 d4 d4 | e8 d8 | c4 d4 e4 c4- | c4 c4 c4 e4 | c4 c4 c4 A4 | G8 A8 | d4 f4 g8 | f4 e4 c4 e4 | %28
w: qua la- te- ris|Chri- sti,|la- va me. Pas-|* si- o Chri-|sti con- for- ta|me. O|bo- ne Je-|su, ex- au- di|
 f8 e4 d4 | d8 e4 d4 | f8 e4 d4 | e4 d4 c8 | G8 B4 d4 | e8 d4 B4 | G4 G4 B8 | B4 c4 c8 | G8 c6 c2 | %37
w: me. In- tra|tu- a vul-|ne- ra ab-|scon- de me.|Ne per- *|mit- * tas|se- pa- ra-|ri ad te.|Ab ho- ste|
 B8 A4 c4 | A4 F4 G4 c4 | c6 c2 c8 | d8 B4 c4 | c6 c2 d6 d2 | e4 e4 e8 | f8 d4 f4 | d4 c4 A8 | %45
w: ma- * *|li- * gno de-|fen- de me.|In ho- ra|mor- tis me- ae|vo- ca me.|Et iu- be|me ve- ni-|
 A4 A4 e8 | e6 d2 c8- | c4 c4 c8 | B8 G4 A4 | c8 c6 B2 | G6 A2 c4 c4 | F4 F4 G8 | %52
w: re ad te.|Ut cum san-|* ctis tu-|is lau- dem|te. Ut cum|san- ctis tu- is|lau- dem te.|
 z4 z2 G2 A4 A2 B2 | c4 c2 d2 e8 | f4 f4 e8 | d8 c8 | B16 | A16 |] %58
w: In sae- cu- la|sae- cu- * lo-|rum. A- men,|a- *||men.|
V:4
 D,6 E,2 F,4 G,4 | D,4 B,,4 C,2 D,2 E,2 F,2 | G,6 E,2 D,4 G,,4 | D,8 z8 | z16 | z16 | %6
w: A- * ni- ma|Chri- sti san- * * *|cti- * fi- ca|me.|||
 z8 A,4 D2 C2 | B,2 A,2 G,4 F,4 D,4 | G,8 F,8 | G,8 C,4 E,4 | G,8 F,4 E,4 | G,8 G,,8 | %12
w: sal- * *|* * * va me,|cor- pus|Chri- * sti|sal- * va|me, sal-|
 C,4 D,2 E,2 F,8 | G,12 E,4 | D,8 z8 | D,8 D4 C2 B,2 | A,8 G,4 E,4 | D,8 D2 C2 B,2 A,2 | %18
w: va _ _ me,|sal- va|me.|San- guis _ _|Chri- sti in-|e- bri- * * *|
 G,4 F,2 E,2 D,8 | z8 G,8 | G,6 G,2 G,4 B,4 | C8 B,8 | A,4 F,4 C,8 | A,,6 C,2 E,4 A,4 | %24
w: a _ _ me.|A-|qua la- te- ris|Chri- sti,|la- va me.|Pas- si- o Chri-|
 E,6 E,2 E,4 D,4 | E,8 F,8 | D,4 D,4 C,4 G,,4 | D,4 E,4 A,6 A,2 | D,8 E,4 F,4 | G,8 C,4 F,4 | %30
w: sti con- for- ta|me. O|bo- ne Je- *|su, ex- au- di|me. In- tra|tu- a vul-|
 D,8 E,4 F,4 | A,8 A,,8 | C,8 G,4 G,4 | A,8 G,8 | C,4 E,4 G,8 | G,4 F,4 E,4 C,4- | %36
w: ne- ra ab-|scon- de|me. Ne per-|mit- tas|se- pa- ra-|ri ad te. Ab|
 C,4 C,2 D,2 E,4 F,4 | G,8 F,4 E,4 | D,8 C,8 | F,8 C8 | B,6 A,2 G,4 F,4 | E,8 D,8 | C,6 B,,2 A,,8 | %43
w: _ ho- * ste ma-|li- gno de-|fen- de|me. In|ho- ra mor- tis|me- ae|vo- ca me.|
 D,8 G,4 A,4 | B,4 C4 F,8 | F,4 D,4 C,8 | A,,4 E,4 A,8 | F,8 A,8 | G,4 F,4 E,4 D,4 | C,8 F,6 G,2 | %50
w: Et iu- be|me ve- ni-|re ad te.|Ut cum san-|ctis tu-|is lau- * dem|te. Ut cum|
 E,6 D,2 C,4 C,4 | A,,8 C,8 | G,8 z4 z2 D,2 | %53
w: san- ctis tu- is|lau- dem|te. In|
 E,4"^A.M.D.G.\nPalm Sunday\nBirmingham, 20th March 2016\n" E,2 F,2 G,4 A,4 | A,8 C4 C4 | B,8 A,8 | %56
w: sae- cu- la sae- cu-|lo- rum. A-||
 G,8 G,,8 | D,16 |] %58
w: |men.|

